X: 101
T: Wirtemberg Waltz
%R: waltz
Z: 2018 John Chambers <jc:trillian.mit.edu>
B: Bland and Weller "Country Dances for the Year 1798" p.10 #1
N: The repeat pattern is unclear.
M: 3/8
L: 1/16
K: G
% - - - - - - - - - - - - - - - - - - - - - - - - -
D2 |\
G2G2B2 | d2d2g2 | efgfge | d4B2 |\
cBcdec | BABcdB | ABcAGF | G4 :|
FG |\
A2A2d2 | B2B2d2 | ^c2c2e2 | d4de |\
f2d2d2 | g2e2e2 | abagfe | ded=cB"_D.C."A |]
!pp!GA |\
B2B2B2 | BABGAB | cdedcB | BAGDGA |\
B2B2B2 | BABGAB | cdecAF | G4 :|
% - - - - - - - - - - - - - - - - - - - - - - - - -
%%begintext align
%%  First & 2d Couple set and half right and left .|
%% back again .|. Lead down the middle up again :|.
%% Allmand :|: swing corners .:|:.
%%endtext
% - - - - - - - - - - - - - - - - - - - - - - - - -
